!!!OTL: Mich fliehen alle Freuden.
!!!OTL-incipit: MICH FLIEHEN ALLE FREUDEN
!!!COM: G. Paisiello
!!!ARE: Europa, Mitteleuropa, Deutschland
!!!SCT: F0954
!!!TXL: @@DE
!!!YEM: Copyright 1995, estate of Helmut Schaffrath.
**kern	**text
*ICvox	*
*M6/8	*
*k[f#]	*
*G:	*
!LO:TX:a:t=Andantino.	!
{8dd	Mich
=1	=1
4b	flie-
8b	-hen
4a	al-
8a	-le
=2	=2
4g	Freu-
8g	-den,
8r	.
8r}	.
{8dd	ich
=3	=3
4dd	ſterb'
8g	vor
4ee	Un-
8ee	-ge-
=4	=4
4.a	-duld;
8r	.
8r}	.
{8a	an
=5	=5
4b	al-
8b	-len
4cc	mei-
8cc	-nen
=6	=6
4.dd	Lei-
4ee}	-den
{8ee	iſt
=7	=7
4g	nur
8g	die
(8bqq	.
4a)	Lie-
16gL	-be
16aJ	.
=8	=8
4g	ſchuld.
8r	.
4r}	.
{8dd	Es
=9	=9
4g#	quält
8g#	und
4ee	plagt
8dd	mich
=10	=10
(8ddqq	.
8.cc)	im-
16cc	-mer-
8cc	-hin,
8r	.
8r}	.
{8cc	ich
=11	=11
4f#	weiß
8f#	vor
4dd	Angſt
8cc	nicht
=12	=12
(8ccqq	.
8.b)	mehr
16b	wo-
8b	-hin!
8r	.
8r}	.
{8g	Wer
=13	=13
4cc#	hät-
8cc#	-te
4cc#	das
8cc#	ge-
=14	=14
4dd	-dacht?
8r	.
4r;}	.
{8dd	Die
=15	=15
4ccn	Lie-
8cc	-be,
4b	ach!
8b	die
=16	=16
4a	Lie-
8a	-be
8r	.
8r}	.
{8a	hat
=17	=17
4b	mich
8b	ſo
4cc	weit
8cc	ge-
=18	=18
4dd	-bracht!
8r	.
4r}	.
{8ee	Wer
=19	=19
(8eeqq	.
4g)	hät-
8g	-te
(8bqq	.
4a)	das
16gL	ge-
16aJ	.
=20	=20
4g	-dacht?
8r	.
4r}	.
==	==
!!!AGN: Liebes - Lied, Klage
!!!ONB: ESAC (Essen Associative Code) Database: FINK
!!!AMT: compound duple
!!!AIN: vox
!!!EED: Helmut Schaffrath
!!!EEV: 1.0
!!!GTL: Minnelieder.
!!!source: Musikalischer Hausschatz der Deutschen. Eine Sammlung von über 1000 Liedern und Gesängen mit Singstimmen und Klavierbegleitung. Leipzig, Litterarisches Verlags-Haus.
!!!page: 710
!!!ENC: Anna Maria Matuszewska
!!!EEV: 2025/03/20
*-	*-
